icon/fa/worm.svg

<svg xmlns="http://www.w3.org/2000/svg" viewBox="0 0 512 512"><!--! Font Awesome Free 6.1.2 by @fontawesome - https://fontawesome.com License - https://fontawesome.com/license/free (Icons: CC BY 4.0, Fonts: SIL OFL 1.1, Code: MIT License) Copyright 2022 Fonticons, Inc.--><path d="M256 96c0-53.02 42.1-96 96-96h38.4C439.9 0 480 40.12 480 89.6V376c0 75.1-60.9 136-136 136s-136-60.9-136-136v-80c0-22.1-17.9-40-40-40s-40 17.9-40 40v168c0 26.5-21.5 48-48 48-26.51 0-48-21.5-48-48V296c0-75.1 60.89-136 136-136 75.1 0 136 60.9 136 136v80c0 22.1 17.9 40 40 40s40-17.9 40-40V192h-32c-53.9 0-96-43-96-96zm120-32c-13.3 0-24 10.75-24 24 0 13.3 10.7 24 24 24s24-10.7 24-24c0-13.25-10.7-24-24-24z"/></svg>

<svg xmlns="http://www.w3.org/2000/svg" viewBox="0 0 512 512" height="1em" width="1em">
<!--! Font Awesome Free 6.1.2 by @fontawesome - https://fontawesome.com License - https://fontawesome.com/license/free (Icons: CC BY 4.0, Fonts: SIL OFL 1.1, Code: MIT License) Copyright 2022 Fonticons, Inc.-->
  <path d="M256 96C256 42.98 298.1 0 352 0H390.4C439.9 0 480 40.12 480 89.6V376C480 451.1 419.1 512 344 512C268.9 512 208 451.1 208 376V296C208 273.9 190.1 256 168 256C145.9 256 128 273.9 128 296V464C128 490.5 106.5 512 80 512C53.49 512 32 490.5 32 464V296C32 220.9 92.89 160 168 160C243.1 160 304 220.9 304 296V376C304 398.1 321.9 416 344 416C366.1 416 384 398.1 384 376V192H352C298.1 192 256 149 256 96zM376 64C362.7 64 352 74.75 352 88C352 101.3 362.7 112 376 112C389.3 112 400 101.3 400 88C400 74.75 389.3 64 376 64z"/>
</svg>
